icons/svg/star.svg

<svg width="24" height="24" viewBox="0 0 24 24" fill="none" xmlns="http://www.w3.org/2000/svg">
<path d="M10.7039 4.32538C11.2825 3.33198 12.7177 3.33198 13.2963 4.32538L15.1136 7.44556C15.3255 7.80946 15.6807 8.0675 16.0923 8.15663L19.6213 8.92083C20.7449 9.16414 21.1884 10.529 20.4224 11.3863L18.0165 14.0789C17.736 14.3929 17.6003 14.8104 17.6427 15.2294L18.0065 18.8219C18.1223 19.9657 16.9612 20.8092 15.9092 20.3456L12.605 18.8895C12.2196 18.7197 11.7806 18.7197 11.3952 18.8895L8.09097 20.3456C7.03896 20.8092 5.87792 19.9657 5.99372 18.8219L6.35746 15.2294C6.39988 14.8104 6.26422 14.3929 5.98363 14.0789L3.57775 11.3863C2.81177 10.529 3.25525 9.16414 4.37883 8.92083L7.90788 8.15663C8.31947 8.0675 8.67463 7.80946 8.88658 7.44556L10.7039 4.32538Z" stroke="currentColor" stroke-width="1.5" stroke-linecap="round" stroke-linejoin="round"/>
</svg>

<svg xmlns="http://www.w3.org/2000/svg" width="24" height="24" fill="none" viewBox="0 0 24 24"><path stroke="currentColor" stroke-linecap="round" stroke-linejoin="round" stroke-width="1.5" d="M10.704 4.325a1.5 1.5 0 0 1 2.592 0l1.818 3.12a1.5 1.5 0 0 0 .978.712l3.53.764a1.5 1.5 0 0 1 .8 2.465l-2.405 2.693a1.5 1.5 0 0 0-.374 1.15l.363 3.593a1.5 1.5 0 0 1-2.097 1.524l-3.304-1.456a1.5 1.5 0 0 0-1.21 0l-3.304 1.456a1.5 1.5 0 0 1-2.097-1.524l.363-3.593a1.5 1.5 0 0 0-.373-1.15l-2.406-2.693a1.5 1.5 0 0 1 .8-2.465l3.53-.764a1.5 1.5 0 0 0 .979-.711z"/></svg>
